X: 293
T: Amazon Hornpipe
M:4/4
R:Hornpipe
L:1/8
Z:Alf Warnock - alf0@rogers.com
K:G
Bc|"G"dgdB "D7"edcA|"G"GFGA BGDC|"G"B,DGF "Am"EGcB|"D7"(3ABA (3GFE D2Bc|
"G"dgdB "D7"edcA|"G"GFGA BGDC|B,DGF "D7"EcAF|"G"G2B2 G2:|
FG|\
"Am"A^GAB cBcd|"Am"edef "G"g2 (3def|gfed "Am"cBAG|"D7"Ad"A7"^ce "D7"d2Bc|
"G"dgdB "D7"edcA|"G"GFGA BGDC|B,DGF "D7"EcAF|"G"G2B2 G2:|
